panels/multitasking/assets/workspaces-primary-display.svg

<?xml version="1.0" encoding="UTF-8" standalone="no"?>
<svg
   width="326"
   height="94"
   viewBox="0 0 86.254506 24.871"
   version="1.1"
   id="svg29"
   sodipodi:docname="workspaces-primary-display.svg"
   inkscape:version="1.1.1 (3bf5ae0d25, 2021-09-20)"
   xmlns:inkscape="http://www.inkscape.org/namespaces/inkscape"
   xmlns:sodipodi="http://sodipodi.sourceforge.net/DTD/sodipodi-0.dtd"
   xmlns="http://www.w3.org/2000/svg"
   xmlns:svg="http://www.w3.org/2000/svg">
  <sodipodi:namedview
     id="namedview31"
     pagecolor="#ffffff"
     bordercolor="#cccccc"
     borderopacity="1"
     inkscape:pageshadow="0"
     inkscape:pageopacity="1"
     inkscape:pagecheckerboard="true"
     showgrid="false"
     inkscape:zoom="1"
     inkscape:cx="164.5"
     inkscape:cy="69"
     inkscape:window-width="1920"
     inkscape:window-height="1131"
     inkscape:window-x="0"
     inkscape:window-y="0"
     inkscape:window-maximized="1"
     inkscape:current-layer="svg29"
     width="326px">
    <inkscape:grid
       type="xygrid"
       id="grid65" />
  </sodipodi:namedview>
  <defs
     id="defs5">
    <clipPath
       clipPathUnits="userSpaceOnUse"
       id="a">
      <path
         style="opacity:1;vector-effect:none;fill:#ed333b;fill-opacity:1;stroke:none;stroke-width:2;stroke-linecap:butt;stroke-linejoin:miter;stroke-miterlimit:4;stroke-dasharray:none;stroke-dashoffset:0;stroke-opacity:1;marker:none"
         d="m 1448,-3870.014 h 127 v 73 h -127 z"
         id="path2" />
    </clipPath>
  </defs>
  <path
     style="display:inline;opacity:0.287;vector-effect:none;fill:#3584e4;fill-opacity:1;stroke:#3584e4;stroke-width:0.79375;stroke-linecap:butt;stroke-linejoin:miter;stroke-miterlimit:4;stroke-dasharray:none;stroke-dashoffset:0;stroke-opacity:1;marker:none;marker-start:none;marker-mid:none;marker-end:none;paint-order:normal"
     d="M 0.39672673,0.3974596 H 41.936592 V 24.474709 H 0.39672673 Z"
     id="path100" />
  <path
     style="display:inline;vector-effect:none;fill:none;fill-opacity:1;stroke:#3584e4;stroke-width:0.529167;stroke-linecap:butt;stroke-linejoin:miter;stroke-miterlimit:4;stroke-dasharray:none;stroke-dashoffset:0;stroke-opacity:1;marker:none"
     d="M 0.26488277,0.265 H 42.068883 V 24.607 H 0.26488277 Z"
     id="path98" />
  <path
     d="M -1.1702128e-4,0 V 2.648 H 0.52788298 c 0,-0.397 0.395,-0.794 0.79300002,-0.794 h 39.675 c 0.444,0 0.807,0.424 0.807,0.794 l 0.51,-0.002 0.02,-2.646 z"
     style="color:#000000;font-style:normal;font-variant:normal;font-weight:400;font-stretch:normal;font-size:medium;line-height:normal;font-family:sans-serif;font-variant-ligatures:normal;font-variant-position:normal;font-variant-caps:normal;font-variant-numeric:normal;font-variant-alternates:normal;font-feature-settings:normal;text-indent:0;text-align:start;text-decoration:none;text-decoration-line:none;text-decoration-style:solid;text-decoration-color:#000000;letter-spacing:normal;word-spacing:normal;text-transform:none;writing-mode:lr-tb;direction:ltr;text-orientation:mixed;dominant-baseline:auto;baseline-shift:baseline;text-anchor:start;white-space:normal;shape-padding:0;clip-rule:nonzero;display:inline;overflow:visible;visibility:visible;isolation:auto;mix-blend-mode:normal;color-interpolation:sRGB;color-interpolation-filters:linearRGB;solid-color:#000000;solid-opacity:1;vector-effect:none;fill:#3584e4;fill-opacity:1;fill-rule:nonzero;stroke:none;stroke-width:0.529167;stroke-linecap:butt;stroke-linejoin:miter;stroke-miterlimit:4;stroke-dasharray:none;stroke-dashoffset:0;stroke-opacity:1;marker:none;color-rendering:auto;image-rendering:auto;shape-rendering:auto;text-rendering:auto;enable-background:accumulate"
     id="path114" />
  <rect
     y="0.26458511"
     x="44.185596"
     height="24.341841"
     width="41.804455"
     style="vector-effect:none;fill:none;fill-opacity:1;stroke:#3584e4;stroke-width:0.529162;stroke-linecap:butt;stroke-linejoin:miter;stroke-miterlimit:4;stroke-dasharray:none;stroke-dashoffset:0;stroke-opacity:1;marker:none"
     id="rect67" />
  <path
     style="display:inline;opacity:0.287;vector-effect:none;fill:#3584e4;fill-opacity:1;stroke:#3584e4;stroke-width:0.79375;stroke-linecap:butt;stroke-linejoin:miter;stroke-miterlimit:4;stroke-dasharray:none;stroke-dashoffset:0;stroke-opacity:1;marker:none;marker-start:none;marker-mid:none;marker-end:none;paint-order:normal"
     d="M 44.31789,0.39745963 H 85.857756 V 24.474709 H 44.31789 Z"
     id="path3092" />
  <rect
     style="opacity:1;fill:#3584e4;fill-opacity:1;stroke:#ed333b;stroke-width:0;stroke-linecap:round;stroke-miterlimit:4;stroke-dasharray:none"
     id="rect3775"
     width="33.337723"
     height="19.579298"
     x="48.418961"
     y="2.6464353"
     rx="1.3229258"
     ry="1.3229257" />
  <rect
     style="opacity:1;fill:#3584e4;fill-opacity:1;stroke:#ed333b;stroke-width:0;stroke-linecap:round;stroke-miterlimit:4;stroke-dasharray:none"
     id="rect4017"
     width="26.458509"
     height="15.345935"
     x="7.9374046"
     y="4.7625322"
     rx="1.3229257"
     ry="1.3229256" />
  <path
     id="rect4019"
     style="opacity:1;fill:#3584e4;stroke:#ed333b;stroke-width:0;stroke-linecap:round;fill-opacity:1"
     d="M 38.364689,4.7625322 H 41.80433 V 20.108467 h -3.439641 c -0.732901,0 -1.322926,-0.590025 -1.322926,-1.322925 V 6.0854578 c 0,-0.7329008 0.590025,-1.3229256 1.322926,-1.3229256 z"
     sodipodi:nodetypes="sccssss" />
  <path
     id="path4221"
     style="opacity:1;fill:#3584e4;stroke:#ed333b;stroke-width:0;stroke-linecap:round;fill-opacity:1"
     d="M 3.96866,4.7625322 H 0.52901899 V 20.108467 H 3.96866 c 0.732901,0 1.3229261,-0.590025 1.3229261,-1.322925 V 6.0854578 C 5.2915861,5.352557 4.701561,4.7625322 3.96866,4.7625322 Z"
     sodipodi:nodetypes="sccssss" />
</svg>

<svg width="326" height="94" viewBox="0 0 86.255 24.871" xmlns="http://www.w3.org/2000/svg"><path style="display:inline;opacity:.287;vector-effect:none;fill:#3584e4;fill-opacity:1;stroke:#3584e4;stroke-width:.79375;stroke-linecap:butt;stroke-linejoin:miter;stroke-miterlimit:4;stroke-dasharray:none;stroke-dashoffset:0;stroke-opacity:1;marker:none;marker-start:none;marker-mid:none;marker-end:none;paint-order:normal" d="M.397.397h41.54v24.078H.397Z"/><path style="display:inline;vector-effect:none;fill:none;fill-opacity:1;stroke:#3584e4;stroke-width:.529167;stroke-linecap:butt;stroke-linejoin:miter;stroke-miterlimit:4;stroke-dasharray:none;stroke-dashoffset:0;stroke-opacity:1;marker:none" d="M.265.265h41.804v24.342H.265Z"/><path style="vector-effect:none;fill:none;fill-opacity:1;stroke:#3584e4;stroke-width:.529162;stroke-linecap:butt;stroke-linejoin:miter;stroke-miterlimit:4;stroke-dasharray:none;stroke-dashoffset:0;stroke-opacity:1;marker:none" d="M44.186.265H85.99v24.342H44.186z"/><path style="display:inline;opacity:.287;vector-effect:none;fill:#3584e4;fill-opacity:1;stroke:#3584e4;stroke-width:.79375;stroke-linecap:butt;stroke-linejoin:miter;stroke-miterlimit:4;stroke-dasharray:none;stroke-dashoffset:0;stroke-opacity:1;marker:none;marker-start:none;marker-mid:none;marker-end:none;paint-order:normal" d="M44.318.397h41.54v24.078h-41.54Z"/><rect style="opacity:1;fill:#3584e4;fill-opacity:1;stroke:#ed333b;stroke-width:0;stroke-linecap:round;stroke-miterlimit:4;stroke-dasharray:none" width="33.338" height="19.579" x="48.419" y="2.646" rx="1.323" ry="1.323"/><rect style="opacity:1;fill:#3584e4;fill-opacity:1;stroke:#ed333b;stroke-width:0;stroke-linecap:round;stroke-miterlimit:4;stroke-dasharray:none" width="26.459" height="15.346" x="7.937" y="4.763" rx="1.323" ry="1.323"/><path style="opacity:1;fill:#3584e4;stroke:#ed333b;stroke-width:0;stroke-linecap:round;fill-opacity:1" d="M38.365 4.763h3.44v15.345h-3.44a1.32 1.32 0 0 1-1.323-1.322v-12.7c0-.733.59-1.323 1.323-1.323zM3.969 4.763H.529v15.345h3.44a1.32 1.32 0 0 0 1.323-1.322v-12.7a1.32 1.32 0 0 0-1.323-1.323Z"/><path style="fill:#3584e4;fill-opacity:1;stroke-width:.52917;stroke-linejoin:round;stop-color:#000" d="M0 0h42.334v1.852H0z"/></svg>
